X:3
T: Midnight on the Water
R: waltz
M: 3/4
L: 1/8
K: Dmaj
DE |"D"Fz F2 FE | Fz F2 FE|F A3 AB|AF ED DE | \
F2 "G"d3 B |"D" AF D2DE |"A" F2 AF EF |"D" D4 :|
(3ABc| "D"d2dc de|dc BA Bc|d3 B AF|D4 d2|\
"Em"e4 ef|"Em7" e2 d2 e2|"Bm"f3e fe|"F#m7"dc BA Bc|
"G"d3 c de|"G6" dc BA Bc |"D" d3 B AF |D4 DE |\
"D"F2 d2 "G"B2 |"D" A3 F DE |"A" F2 AF EF |"D" D4|]
%%newpage

